src/icons/svgs/16/facebook.svg

<svg width="16" height="16" viewBox="0 0 16 16" fill="none" xmlns="http://www.w3.org/2000/svg">
<path d="M15 8.04257C15.0003 6.69693 14.6172 5.37938 13.8962 4.24594C13.1751 3.11249 12.1462 2.21062 10.9314 1.64711C9.71651 1.08361 8.36657 0.88206 7.04137 1.06634C5.71617 1.25062 4.47123 1.81301 3.45395 2.68692C2.43666 3.56083 1.68964 4.70966 1.30135 5.99737C0.913048 7.28509 0.899733 8.65776 1.26298 9.95285C1.62622 11.2479 2.35081 12.4112 3.35095 13.3049C4.35108 14.1986 5.58488 14.7853 6.90625 14.9956V10.0774H5.12912V8.04257H6.90625V6.4909C6.86799 6.12869 6.9094 5.76243 7.02755 5.41811C7.1457 5.07378 7.3377 4.75981 7.58994 4.49845C7.84218 4.23709 8.14849 4.03473 8.48715 3.90573C8.82581 3.77672 9.18854 3.72422 9.54962 3.75194C10.0746 3.75888 10.5984 3.80477 11.1168 3.88924V5.62398H10.2347C10.0845 5.60422 9.93177 5.61869 9.78783 5.66633C9.6439 5.71396 9.51246 5.79354 9.40324 5.89918C9.29401 6.00482 9.2098 6.13381 9.15684 6.27661C9.10387 6.41941 9.08351 6.57236 9.09725 6.72414V8.04433H11.0389L10.7283 10.0792H9.09375V15C10.7407 14.7379 12.2406 13.8931 13.3233 12.6176C14.4061 11.3422 15.0007 9.71979 15 8.04257V8.04257Z" fill="black"/>
</svg>

<svg width="16" height="16" viewBox="0 0 16 16" xmlns="http://www.w3.org/2000/svg">
    <path d="M15 8.043a7.072 7.072 0 0 0-1.104-3.797 7.013 7.013 0 0 0-2.965-2.599 6.964 6.964 0 0 0-7.477 1.04A7.045 7.045 0 0 0 1.3 5.997a7.08 7.08 0 0 0-.038 3.956 7.047 7.047 0 0 0 2.088 3.352c1 .894 2.234 1.48 3.555 1.69v-4.918H5.13V8.043h1.777V6.49a2.497 2.497 0 0 1 .684-1.993 2.468 2.468 0 0 1 1.96-.746c.525.007 1.048.053 1.567.137v1.735h-.882a1.005 1.005 0 0 0-1.078.653 1.022 1.022 0 0 0-.06.447v1.32h1.942l-.31 2.035H9.093V15a6.99 6.99 0 0 0 4.23-2.382A7.065 7.065 0 0 0 15 8.043Z"/>
</svg>
